X: 3
T: The Tailor's Thimble
R: reel
M: 4/4
L: 1/8
K: Edor
|:GEED E2EF|GEE2 AFDF|GEED EFGA|1 BcdB AFDF:|2 BcdB ABde||!
|:f2df efde|fedB ABde|f2df efdA|1 BcdB ABde:|2 BcdB AFDF||
